public/assets/linkedin.svg

<svg width="29" height="30" viewBox="0 0 29 30" fill="none" xmlns="http://www.w3.org/2000/svg">
<g clip-path="url(#clip0)">
<path d="M21.7698 28.1621H2.29692C1.99179 28.1621 1.74371 27.914 1.74371 27.6089V2.60395C1.74371 2.29883 1.99179 2.05075 2.29692 2.05075H3.40333C3.70889 2.05075 3.95654 1.8031 3.95654 1.49754C3.95654 1.19198 3.70889 0.944336 3.40333 0.944336H2.29692C1.38175 0.944336 0.637299 1.68879 0.637299 2.60395V27.6089C0.637299 28.524 1.38175 29.2685 2.29692 29.2685H21.7698C22.0751 29.2685 22.323 29.0208 22.323 28.7153C22.323 28.4097 22.0753 28.1621 21.7698 28.1621Z" fill="#F87E0F"/>
<path d="M27.3018 0.944336H7.82899C7.52343 0.944336 7.27579 1.19198 7.27579 1.49754C7.27579 1.8031 7.52343 2.05075 7.82899 2.05075H27.3018C27.607 2.05075 27.8551 2.29883 27.8551 2.60395V27.6089C27.8551 27.914 27.607 28.1621 27.3018 28.1621H26.1954C25.8899 28.1621 25.6422 28.4097 25.6422 28.7153C25.6422 29.0208 25.8899 29.2685 26.1954 29.2685H27.3018C28.217 29.2685 28.9615 28.5238 28.9615 27.6089V2.60395C28.9615 1.68879 28.217 0.944336 27.3018 0.944336Z" fill="#F87E0F"/>
<path d="M7.45558 10.7221C9.06463 10.7221 10.3737 9.41296 10.3737 7.8039C10.3737 6.19464 9.06463 4.88574 7.45558 4.88574C5.84631 4.88574 4.53741 6.19485 4.53741 7.8039C4.53741 9.41296 5.84631 10.7221 7.45558 10.7221ZM7.45558 5.99215C8.45459 5.99215 9.26733 6.80489 9.26733 7.8039C9.26733 8.80292 8.45459 9.61565 7.45558 9.61565C6.45656 9.61565 5.64383 8.80292 5.64383 7.8039C5.64383 6.80489 6.45656 5.99215 7.45558 5.99215Z" fill="#F87E0F"/>
<path d="M19.6814 10.999C18.4588 10.999 17.2787 11.4243 16.3345 12.1759V11.8288C16.3345 11.5233 16.0867 11.2756 15.7813 11.2756H11.9227C11.6172 11.2756 11.3695 11.5233 11.3695 11.8288V24.7739C11.3695 25.0794 11.6172 25.3271 11.9227 25.3271H15.9888C16.2941 25.3271 16.542 25.0794 16.542 24.7739V17.3021C16.542 16.3794 17.2927 15.6287 18.2154 15.6287C19.1382 15.6287 19.8889 16.3794 19.8889 17.3021V24.7739C19.8889 25.0794 20.1365 25.3271 20.4421 25.3271H24.5082C24.8135 25.3271 25.0614 25.0794 25.0614 24.7739V16.379C25.0614 13.4124 22.6478 10.999 19.6814 10.999ZM23.9549 24.2207H20.9953V17.3021C20.9953 15.7693 19.7482 14.5223 18.2154 14.5223C16.6824 14.5223 15.4356 15.7693 15.4356 17.3021V24.2207H12.4759V12.382H15.2281V13.5444C15.2281 13.7839 15.382 13.9961 15.6097 14.0704C15.8371 14.1445 16.0869 14.0639 16.228 13.8705C17.0349 12.7654 18.3259 12.1054 19.6814 12.1054C22.0377 12.1054 23.9549 14.0224 23.9549 16.379V24.2207Z" fill="#F87E0F"/>
<path d="M5.42253 11.2754C5.11697 11.2754 4.86932 11.523 4.86932 11.8286V24.7736C4.86932 25.0792 5.11697 25.3268 5.42253 25.3268H9.4886C9.79394 25.3268 10.0418 25.0792 10.0418 24.7736V11.8286C10.0418 11.523 9.79394 11.2754 9.4886 11.2754H5.42253ZM8.93539 24.2204H5.97574V12.3818H8.93539V24.2204Z" fill="#F87E0F"/>
<path d="M5.61638 2.05075C5.92172 2.05075 6.16959 1.8031 6.16959 1.49754C6.16959 1.19198 5.92172 0.944336 5.61638 0.944336H5.61595C5.31039 0.944336 5.06296 1.19198 5.06296 1.49754C5.06296 1.8031 5.31082 2.05075 5.61638 2.05075Z" fill="#F87E0F"/>
<path d="M23.9828 28.1621H23.9824C23.6768 28.1621 23.4294 28.4098 23.4294 28.7153C23.4294 29.0209 23.6772 29.2685 23.9828 29.2685C24.2884 29.2685 24.536 29.0209 24.536 28.7153C24.536 28.4098 24.2884 28.1621 23.9828 28.1621Z" fill="#F87E0F"/>
</g>
<defs>
<clipPath id="clip0">
<rect width="28.3242" height="28.3242" fill="white" transform="translate(0.637299 0.944336)"/>
</clipPath>
</defs>
</svg>

<svg width="29" height="30" fill="none" xmlns="http://www.w3.org/2000/svg"><g clip-path="url(#clip0)" fill="#F87E0F"><path d="M21.77 28.162H2.297a.554.554 0 01-.553-.553V2.604c0-.305.248-.553.553-.553h1.106a.553.553 0 100-1.107H2.297c-.915 0-1.66.745-1.66 1.66v25.005c0 .915.745 1.66 1.66 1.66H21.77a.553.553 0 000-1.107zM27.302.944H7.829a.553.553 0 100 1.107h19.473c.305 0 .553.248.553.553v25.005a.554.554 0 01-.553.553h-1.107a.553.553 0 100 1.107h1.107c.915 0 1.66-.745 1.66-1.66V2.604c0-.915-.745-1.66-1.66-1.66z"/><path d="M7.456 10.722a2.921 2.921 0 002.918-2.918c0-1.61-1.31-2.918-2.918-2.918a2.921 2.921 0 00-2.919 2.918 2.921 2.921 0 002.919 2.918zm0-4.73c.999 0 1.811.813 1.811 1.812 0 .999-.812 1.812-1.811 1.812a1.814 1.814 0 01-1.812-1.812c0-1 .813-1.812 1.812-1.812zM19.681 10.999a5.386 5.386 0 00-3.347 1.177v-.347a.553.553 0 00-.553-.553h-3.858a.553.553 0 00-.553.553v12.945c0 .305.247.553.553.553h4.066a.553.553 0 00.553-.553v-7.472c0-.923.75-1.673 1.673-1.673s1.674.75 1.674 1.673v7.472c0 .305.248.553.553.553h4.066a.553.553 0 00.553-.553v-8.395a5.386 5.386 0 00-5.38-5.38zm4.274 13.222h-2.96v-6.919a2.783 2.783 0 00-2.78-2.78 2.783 2.783 0 00-2.78 2.78v6.919h-2.96V12.382h2.753v1.162a.553.553 0 001 .326 4.295 4.295 0 013.453-1.765 4.278 4.278 0 014.274 4.274v7.842zM5.423 11.275a.553.553 0 00-.554.554v12.945c0 .305.248.553.554.553h4.066a.553.553 0 00.553-.553V11.829a.553.553 0 00-.553-.554H5.423zM8.935 24.22h-2.96V12.382h2.96V24.22zM5.616 2.05a.553.553 0 000-1.106.553.553 0 100 1.107zM23.983 28.162a.553.553 0 10-.001 1.106.553.553 0 000-1.106z"/></g><defs><clipPath id="clip0"><path fill="#fff" transform="translate(.637 .944)" d="M0 0h28.324v28.324H0z"/></clipPath></defs></svg>
